src/ios-folder.svg

<?xml version="1.0" encoding="utf-8"?>
<!-- Generated by IcoMoon.io -->
<!DOCTYPE svg PUBLIC "-//W3C//DTD SVG 1.1//EN" "http://www.w3.org/Graphics/SVG/1.1/DTD/svg11.dtd">
<svg version="1.1" xmlns="http://www.w3.org/2000/svg" xmlns:xlink="http://www.w3.org/1999/xlink" width="512" height="512" viewBox="0 0 512 512">
<path fill="#000000" d="M472 176h-432c-4.411 0-8 3.589-8 8v239c0 13.317 11.683 25 25 25h400c12.683 0 23-11.215 23-25v-239c0-4.411-3.589-8-8-8z"></path>
<path fill="#000000" d="M457 96h-242c-2.791 0-4.271-0.585-6.094-2.408l-22.669-22.663c-4.872-4.596-8.876-6.929-17.237-6.929h-112c-13.785 0-25 10.317-25 23v74.376c2.504-0.888 5.195-1.376 8-1.376h432c2.805 0 5.496 0.488 8 1.376v-42.376c0-13.327-9.673-23-23-23z"></path>
</svg>

<?xml version="1.0" encoding="utf-8"?>
<!-- Generator: Adobe Illustrator 16.2.1, SVG Export Plug-In . SVG Version: 6.00 Build 0)  -->
<!DOCTYPE svg PUBLIC "-//W3C//DTD SVG 1.1//EN" "http://www.w3.org/Graphics/SVG/1.1/DTD/svg11.dtd">
<svg version="1.1" id="Layer_1" xmlns="http://www.w3.org/2000/svg" xmlns:xlink="http://www.w3.org/1999/xlink" x="0px" y="0px"
	 width="512px" height="512px" viewBox="0 0 512 512" enable-background="new 0 0 512 512" xml:space="preserve">
<g>
	<path d="M472,176H40c-4.411,0-8,3.589-8,8v239c0,13.317,11.683,25,25,25h400c12.683,0,23-11.215,23-25V184
		C480,179.589,476.411,176,472,176z"/>
	<path d="M457,96H215c-2.791,0-4.271-0.585-6.094-2.408l-22.501-22.501l-0.168-0.162C181.365,66.333,177.361,64,169,64H57
		c-13.785,0-25,10.317-25,23v74.376c2.504-0.888,5.195-1.376,8-1.376h432c2.805,0,5.496,0.488,8,1.376V119
		C480,105.673,470.327,96,457,96z"/>
</g>
</svg>
